icons/1_Primary/Open Collective.svg

<svg xmlns="http://www.w3.org/2000/svg" width="1024" height="1024" fill="none">
   <g clip-path="url(#a)">
      <path fill="#728DBE" d="M512 1024c282.77 0 512-229.23 512-512S794.77 0 512 0 0 229.23 0 512s229.23 512 512 512Z" style="fill:#9abeff"/>
      <path fill="#fff" d="M722.5 366.2C751.2 407.6 768 457.8 768 512c0 54.2-16.8 104.4-45.5 145.8l-66.3-66.3c13-23.6 20.4-50.7 20.4-79.5 0-28.8-7.4-55.9-20.4-79.5l66.3-66.3Zm-64.7-64.7-66.3 66.3c-23.6-13-50.7-20.4-79.5-20.4-90.9 0-164.6 73.7-164.6 164.6 0 90.9 73.7 164.6 164.6 164.6 28.8 0 55.9-7.4 79.5-20.4l66.3 66.3C616.4 751.2 566.2 768 512 768c-141.4 0-256-114.6-256-256s114.6-256 256-256c54.2 0 104.4 16.8 145.8 45.5Z"/>
   </g>
   <defs>
      <clipPath id="a">
         <path fill="#fff" d="M0 0h1024v1024H0z"/>
      </clipPath>
   </defs>
</svg>

<?xml version="1.0" encoding="UTF-8" standalone="no"?>
<svg
   width="1024"
   height="1024"
   viewBox="0 0 1024 1024"
   fill="none"
   version="1.1"
   id="svg13"
   sodipodi:docname="Open Collective.svg"
   inkscape:version="1.2.2 (732a01da63, 2022-12-09)"
   xmlns:inkscape="http://www.inkscape.org/namespaces/inkscape"
   xmlns:sodipodi="http://sodipodi.sourceforge.net/DTD/sodipodi-0.dtd"
   xmlns="http://www.w3.org/2000/svg"
   xmlns:svg="http://www.w3.org/2000/svg">
  <sodipodi:namedview
     id="namedview15"
     pagecolor="#505050"
     bordercolor="#eeeeee"
     borderopacity="1"
     inkscape:showpageshadow="0"
     inkscape:pageopacity="0"
     inkscape:pagecheckerboard="0"
     inkscape:deskcolor="#505050"
     showgrid="false"
     inkscape:zoom="0.83398438"
     inkscape:cx="348.9274"
     inkscape:cy="512"
     inkscape:window-width="1920"
     inkscape:window-height="1009"
     inkscape:window-x="1072"
     inkscape:window-y="479"
     inkscape:window-maximized="1"
     inkscape:current-layer="svg13" />
  <g
     clip-path="url(#clip0_2_3036)"
     id="g6">
    <path
       d="M512 1024C794.77 1024 1024 794.77 1024 512C1024 229.23 794.77 0 512 0C229.23 0 0 229.23 0 512C0 794.77 229.23 1024 512 1024Z"
       fill="#728DBE"
       id="path2"
       style="fill:#9abeff" />
    <path
       d="M722.5 366.2C751.2 407.6 768 457.8 768 512C768 566.2 751.2 616.4 722.5 657.8L656.2 591.5C669.2 567.9 676.6 540.8 676.6 512C676.6 483.2 669.2 456.1 656.2 432.5L722.5 366.2ZM657.8 301.5L591.5 367.8C567.9 354.8 540.8 347.4 512 347.4C421.1 347.4 347.4 421.1 347.4 512C347.4 602.9 421.1 676.6 512 676.6C540.8 676.6 567.9 669.2 591.5 656.2L657.8 722.5C616.4 751.2 566.2 768 512 768C370.6 768 256 653.4 256 512C256 370.6 370.6 256 512 256C566.2 256 616.4 272.8 657.8 301.5Z"
       fill="white"
       id="path4" />
  </g>
  <defs
     id="defs11">
    <clipPath
       id="clip0_2_3036">
      <rect
         width="1024"
         height="1024"
         fill="white"
         id="rect8" />
    </clipPath>
  </defs>
</svg>
